X:1
T:Title
%%score ( 1 2 ) { 3 | 4 }
L:1/8
Q:1/4=110
M:4/4
K:F
V:1 treble nm="Grand Piano, Soprano"
V:2 treble 
V:3 bass nm="Choir Pad, Good News on Christmas"
V:4 bass 
V:1
 F2 A2 F2 c2 | [EG]2 [FA]2- [FA][EG] F2 | [CF]2 DE FG [DA]2 | [DB]2 [EG]4 z2 | G2 B2 G2 d2 | %5
w: By~Frances~J.~Hatton,~1884 * * *|||||
 [^FA]2 [GB]2- [GB][FA] G2 | [DG]2 [CF]2 EF [DG]2 | [EA]2 F4 z2 | A2 G2 G2 G2 | %9
w: ||||
 A=B c2- c/ z/ B [Ec]2 | [Gc]2 [Ac]2 [Fc]2 [Fc]2 | [F=B]2 [Ec]4 z2 | [Fc]2 [Fd]2- [Fd][Fd] [Fc]2 | %13
w: ||||
 [GB]2 [FA]2 [EG]2 [Fc]2 | [=B,F]2 [CA]2 [B,A]2 [_B,A]2 | [B,G]2 [A,F]4 z2 | F2 A2 F2 c2 | %17
w: ||||
 [EG]2 [FA]2- [FA][EG] F2 | z4 .F2 z2 | [DB]2 [EG]4 z2 | G2 B2 G2 d2 | [^FA]2 [GB]2- [GB][FA] G2 | %22
w: |||||
 [DG]2 [CF]2 C-[CF] [DG]2 | [EA]2 F4 z2 | A2 G2 G2 G2 | A=B c2- c/ z/ B [Ec]2 | %26
w: ||||
 [Gc]2 [Ac]2 [Fc]2 [Fc]2 | [F=B]2 [Ec]4 z2 | [Fc]2 [Fd]2- [Fd][Fd] [Fc]2 | %29
w: |||
 [GB]2 [FA]2 [EG]2 [Fc]2 | [=B,F]2 [CA]2 [B,A]2 [_B,A]2 | [B,G]2 [A,F]4 z2 | c2 c2 c2 [Ec]2 | %33
w: ||||
 [Ec]2 c2- cA F2 | [DF]2 [CF]2 [CF]2 [EG]2 | [EG]2 [EA]4 z2 | A2 A2- A/ z/ A A2 | %37
w: ||||
 [DA]2 [EA]2 [DA]2 [EA]2 | [^FA]2 [=FA]2 [DG]D [CE]2 | [CF]2 [CF]6- | [CF]2 z2 z4 |] %41
w: ||||
V:2
 x8 | x8 | z4 D2 z2 | x8 | x8 | x8 | z4 C2 z2 | x8 | x8 | D2 G2 F2 z2 | x8 | x8 | x8 | x8 | x8 | %15
 x8 | x8 | x8 | [CF]2 DE D-[DG] [DA]2 | x8 | x8 | x8 | z4 .E2 z2 | x8 | x8 | D2 G2 F2 z2 | x8 | %27
 x8 | x8 | x8 | x8 | x8 | x8 | z2 F4 z2 | x8 | x8 | x8 | x8 | x8 | x8 | x8 |] %41
V:3
 F,2 A,2 F,2 C2 | C2 C4 C2 | F,2 F,2 F,2 F,2 | G,2 G,4 z2 | G,2 B,2 G,2[K:treble] D2 | %5
 D2 D2- DD D2 | F,G, A,2 A,2 B,2 | C2 A,4 z2 | A,2 G,2 G,2 G,2 | G,2 G,4 G,2 | C2 C2 C2 G,2 | %11
 G,2 G,4 z2 | C2 B,2- B,/ z/ B, C2 | C2 C2 C2 C2 | G,2[K:bass] F,2 D,2 E,2 | E,2 F,4 z2 | %16
 F,2 A,2 F,2 C2 | C2 C4 C2 | F,2 F,2 F,2 F,2 | G,2 G,4 z2 | G,2 B,2 G,2[K:treble] D2 | %21
 D2 D2- DD D2 | F,G, A,2 A,2 B,2 | C2 A,4 z2 | A,2 G,2 G,2 G,2 | G,2 G,4 G,2 | C2 C2 C2 G,2 | %27
 G,2 G,4 z2 | C2 B,2- B,/ z/ B, C2 | C2 C2 C2 C2 | G,2[K:bass] F,2 D,2 E,2 | E,2 F,4 z2 | %32
 C2 C2 C2 C2 | C2 C4 C2 | B,2 C2 A,2 B,2 | B,2 A,4 z2 | A,2 A,2- A,/ z/ A, A,2 | %37
 =B,2[K:treble] ^C2 B,2 C2 | C2 C2[K:bass] =B,2 _B,2 | B,2 A,6- | A,2 z2 z4 |] %41
V:4
 z8 | C,2 F,2- F,G, A,2 | A,,2 B,,2 B,,2 B,,2 | B,,2 C,4 z2 | z8 | D,2 G,2- G,A, B,2 | %6
 B,,2 C,2 C,2 C,2 | C,2 F,4 z2 | z8 | F,2 E,2 D,2 C,2 | E,2 F,G, A,2 z2 | G,,2 C,4 z2 | %12
 A,2 z2 z2 A,2 | E,2 F,2 B,2 A,2 | D,2 C,2 C,2 C,2 | C,2 F,,4 z2 | z8 | C,2 F,2- F,G, A,2 | %18
 A,,2 B,,2 B,,2 B,,2 | B,,2 C,4 z2 | z8 | D,2 G,2- G,A, B,2 | B,,2 C,2 C,2 C,2 | C,2 F,4 z2 | z8 | %25
 F,2 E,2 D,2 C,2 | E,2 F,G, A,2 z2 | G,,2 C,4 z2 | A,2 z2 z2 A,2 | E,2 F,2 B,2 A,2 | %30
 D,2 C,2 C,2 C,2 | C,2 F,,4 z2 | z4 z2 B,2 | B,2 A,4 A,2 | z2 A,2 F,2 C,2 | C,2 ^C,4 z2 | z8 | %37
 A,2 A,2 A,2 A,2 | D,2 G,2 F,2 C,2 | C,2 [F,,F,]6- | [F,,F,]2 z2 z4 |] %41

